packages/core/src/svg/icon-ticket.svg

<?xml version="1.0" encoding="UTF-8"?>
<svg xmlns="http://www.w3.org/2000/svg" width="100%" height="100%" viewBox="0 0 24 24">
  <path d="M11.6234783,1 L22.8502609,5.81173913 C22.8502609,8.43126087 21.7902174,10.9868696 20.0718696,12.7033913 L20.0718696,12.7033913 L16.0298261,16.7463478 C14.3133043,18.4637826 13.2514348,20.8349565 13.2514348,23.4544783 L13.2514348,23.4544783 L2,18.6418261 C2,16.0232174 3.08652174,13.4657826 4.80304348,11.7492609 L4.80304348,11.7492609 L8.84508696,7.70813043 C10.5616087,5.99069565 11.6234783,3.61952174 11.6234783,1 L11.6234783,1 Z M13.529,4.43395652 C13.339087,5.06486957 13.0962174,5.67752174 12.8040435,6.26734783 C12.9747826,6.32669565 13.1327391,6.42165217 13.2605652,6.55130435 C13.4851739,6.77408696 13.6148261,7.08452174 13.6148261,7.40134783 C13.6148261,7.71634783 13.4851739,8.02769565 13.2605652,8.25047826 C13.0368696,8.476 12.7264348,8.60473913 12.4105217,8.60473913 C12.0964348,8.60473913 11.786,8.476 11.5632174,8.25230435 C11.2518696,8.65678261 10.9131304,9.043 10.546087,9.40913043 L10.546087,9.40913043 L6.50495652,13.4511739 C5.53621739,14.418087 4.856,15.7264783 4.56565217,17.1225217 L4.56565217,17.1225217 L11.345913,20.0223478 C11.9046957,18.1624783 12.9172609,16.4578261 14.3288261,15.0453478 L14.3288261,15.0453478 L17.9070435,11.4680435 C17.8413043,11.4251304 17.7792174,11.374913 17.7244348,11.3201304 C17.5007391,11.0955217 17.372,10.786 17.372,10.4682609 C17.372,10.1514348 17.5007391,9.84282609 17.7244348,9.61730435 C17.9490435,9.39269565 18.2585652,9.26486957 18.5753913,9.26486957 C18.8894783,9.26486957 19.199913,9.39178261 19.4226957,9.6163913 C19.8262609,8.91791304 20.1248261,8.14182609 20.290087,7.33195652 L20.290087,7.33195652 Z M14.4174826,8.3962 C14.7151348,7.80272174 15.4382652,7.56167826 16.0317435,7.86024348 C16.6261348,8.15606957 16.8653522,8.8792 16.568613,9.4735913 C16.356787,9.89541739 15.9340478,10.1364609 15.4930478,10.1364609 C15.3113522,10.1364609 15.1269174,10.0972 14.9534391,10.0104609 C14.3608739,9.71189565 14.1198304,8.98876522 14.4174826,8.3962 Z" />
</svg>

<?xml version="1.0" encoding="UTF-8"?><svg viewBox="0 0 24 24" xmlns="http://www.w3.org/2000/svg"><path d="m11.623 1 11.227 4.8117c0 2.6195-1.06 5.1751-2.7784 6.8917l-4.042 4.043c-1.7165 1.7174-2.7784 4.0886-2.7784 6.7081l-11.251-4.8127c0-2.6186 1.0865-5.176 2.803-6.8926l4.042-4.0411c1.7165-1.7174 2.7784-4.0886 2.7784-6.7081zm1.9055 3.434c-0.18991 0.63091-0.43278 1.2436-0.72496 1.8334 0.17074 0.059348 0.3287 0.1543 0.45652 0.28396 0.22461 0.22278 0.35426 0.53322 0.35426 0.85004 0 0.315-0.12965 0.62635-0.35426 0.84913-0.2237 0.22552-0.53413 0.35426-0.85004 0.35426-0.31409 0-0.62452-0.12874-0.8473-0.35243-0.31135 0.40448-0.65009 0.7907-1.0171 1.1568l-4.0411 4.042c-0.96874 0.96691-1.649 2.2753-1.9393 3.6713l6.7803 2.8998c0.55878-1.8599 1.5713-3.5645 2.9829-4.977l3.5782-3.5773c-0.065739-0.042913-0.12783-0.09313-0.18261-0.14791-0.2237-0.22461-0.35243-0.53413-0.35243-0.85187 0-0.31683 0.12874-0.62543 0.35243-0.85096 0.22461-0.22461 0.53413-0.35243 0.85096-0.35243 0.31409 0 0.62452 0.12691 0.8473 0.35152 0.40357-0.69848 0.70213-1.4746 0.86739-2.2844zm0.88848 3.9622c0.29765-0.59348 1.0208-0.83452 1.6143-0.53596 0.59439 0.29583 0.83361 1.019 0.53687 1.6133-0.21183 0.42183-0.63457 0.66287-1.0756 0.66287-0.1817 0-0.36613-0.039261-0.53961-0.126-0.59257-0.29857-0.83361-1.0217-0.53596-1.6143z"/></svg>
